X: 529
T: New Man Tiger
%R: minuet
B: "The Compleat Country Dancing-Master" printed by John Walsh, London ca. 1740
S: 6: CCDM2 http://imslp.org/wiki/The_Compleat_Country_Dancing-Master_(Various) V.2 (88)
Z: 2013 John Chambers <jc:trillian.mit.edu>
M: 3/2
L: 1/8
K: Bb
% - - - - - - - - - - - - - - - - - - - - - - - - -
[|\
B3c Bcd2 c2B2 | d2 f4 d2 c4 | G2 B4 d2 g2d2 | c2G2 GAB2 A4 |\
g3f gaba f2d2 | e2c2 baga f4 | _a3g fg_a2 c2f2 | f6 =e2 f2 |]
[|\
c3B ABc2 f2c2 | d2b2 abag ^f4 | gag2 aba2 g2ba | g6 ^f2 g4 |\
b2 f4 d2 c2B2 | g2d2 cdcB A2F2 | B3c def2 gfed | c6 B2 B4 |]
% - - - - - - - - - - - - - - - - - - - - - - - - -
%%begintext align
%% The 1st Man setts to the 2d Wo. then single and cast
%% off, then turn the 2d Wo. and stand below .| Then the 1st
%% Wo. do the same :| Then both cross over the 3d Cu.
%% and single figure, then right Hand and left to the Top,
%% then cross up to the Top and single figure, then right
%% and left to the Bottom.
%% [CCDM2]
%%endtext
%%sep 1 8 500

%%sep 1 1 500
%%sep 1 1 500
